public/img/phone.svg

<svg width="24" height="24" viewBox="0 0 24 24" fill="none" xmlns="http://www.w3.org/2000/svg">
<path d="M1.27702 8.85801C2.60602 14.138 9.86302 21.4 15.142 22.723C15.8547 22.9036 16.5868 22.9957 17.322 22.997C18.719 22.9964 20.0946 22.653 21.328 21.997C21.7602 21.7713 22.1332 21.4471 22.417 21.0506C22.7008 20.6542 22.8875 20.1965 22.9618 19.7147C23.0362 19.2328 22.9962 18.7402 22.8451 18.2766C22.694 17.8131 22.436 17.3915 22.092 17.046L20.006 14.96C19.5638 14.518 18.9988 14.2195 18.3844 14.1033C17.7701 13.9872 17.135 14.0589 16.562 14.309C16.0153 14.5451 15.5167 14.8797 15.091 15.296C14.913 15.473 14.585 15.501 14.114 15.373C12.8792 14.8712 11.7575 14.1271 10.8149 13.1847C9.87233 12.2423 9.12807 11.1207 8.62602 9.88601C8.50002 9.41501 8.52602 9.08601 8.70402 8.90901C9.12085 8.48271 9.45575 7.98341 9.69202 7.43601C9.94156 6.86323 10.0129 6.2286 9.89681 5.61471C9.7807 5.00082 9.4825 4.43609 9.04102 3.99401L6.95502 1.90901C6.61346 1.56326 6.19458 1.3037 5.73295 1.15173C5.27131 0.999769 4.78016 0.95976 4.30002 1.03501C3.81443 1.10632 3.35272 1.29191 2.95286 1.5765C2.553 1.86109 2.22643 2.23656 2.00002 2.67201C0.992718 4.57067 0.734704 6.77824 1.27702 8.85801ZM3.77302 3.60001C3.85464 3.44375 3.97216 3.30908 4.11592 3.20704C4.25968 3.105 4.42558 3.03851 4.60002 3.01301C4.65525 3.00421 4.71109 2.99986 4.76702 3.00001C4.91098 2.99996 5.05353 3.02849 5.18639 3.08393C5.31925 3.13938 5.43979 3.22064 5.54102 3.32301L7.62602 5.40801C7.78281 5.56297 7.88944 5.76146 7.93205 5.97775C7.97467 6.19405 7.95131 6.41815 7.86502 6.62101C7.72845 6.94657 7.53359 7.24445 7.29002 7.50001C6.93233 7.88108 6.68772 8.35414 6.58352 8.86629C6.47932 9.37844 6.51966 9.90947 6.70002 10.4C7.42202 13.1 10.905 16.579 13.6 17.3C14.0925 17.48 14.6253 17.5192 15.1388 17.4133C15.6523 17.3073 16.1261 17.0603 16.507 16.7C16.7611 16.4567 17.0572 16.2615 17.381 16.124C17.584 16.0375 17.8083 16.014 18.0248 16.0566C18.2413 16.0993 18.44 16.206 18.595 16.363L20.68 18.448C20.8026 18.5693 20.8946 18.7179 20.9485 18.8817C21.0024 19.0454 21.0166 19.2197 20.99 19.39C20.964 19.5647 20.8969 19.7307 20.7941 19.8743C20.6914 20.0179 20.5559 20.135 20.399 20.216C18.9389 21.0007 17.2346 21.1996 15.633 20.772C11.089 19.641 4.36002 12.912 3.21602 8.37001C2.78904 6.76698 2.98819 5.06153 3.77302 3.60001Z" fill="#153067"/>
</svg>

<svg width="24" height="24" fill="none" xmlns="http://www.w3.org/2000/svg"><path d="M1.277 8.858c1.329 5.28 8.586 12.542 13.865 13.865.713.18 1.445.273 2.18.274a8.54 8.54 0 004.006-1 3.109 3.109 0 00.764-4.951l-2.086-2.086a3.112 3.112 0 00-3.444-.651 4.86 4.86 0 00-1.471.987c-.178.177-.506.205-.977.077a9.98 9.98 0 01-5.488-5.487c-.126-.471-.1-.8.078-.977.417-.426.752-.926.988-1.473a3.112 3.112 0 00-.651-3.442L6.955 1.909A3.065 3.065 0 004.3 1.035 3.1 3.1 0 002 2.672a8.58 8.58 0 00-.723 6.186zM3.773 3.6a1.115 1.115 0 011.413-.516c.133.055.254.137.355.239l2.085 2.085a1.1 1.1 0 01.239 1.213 2.9 2.9 0 01-.575.879 2.817 2.817 0 00-.59 2.9c.722 2.7 4.205 6.179 6.9 6.9a2.822 2.822 0 002.907-.6c.254-.243.55-.438.874-.576a1.1 1.1 0 011.214.239l2.085 2.085a1.089 1.089 0 01.31.942 1.113 1.113 0 01-.591.826 6.517 6.517 0 01-4.766.556C11.089 19.641 4.36 12.912 3.216 8.37a6.53 6.53 0 01.557-4.77z" fill="#153067"/></svg>
